src/assets/images/arrow-right.svg

<svg width="24" height="24" viewBox="0 0 24 24" fill="none" xmlns="http://www.w3.org/2000/svg">
<circle cx="12" cy="12" r="10" fill="white"/>
<path fill-rule="evenodd" clip-rule="evenodd" d="M12 3C7.02944 3 3 7.02944 3 12C3 16.9706 7.02944 21 12 21C16.9706 21 21 16.9706 21 12C21 7.02944 16.9706 3 12 3ZM1 12C1 5.92487 5.92487 1 12 1C18.0751 1 23 5.92487 23 12C23 18.0751 18.0751 23 12 23C5.92487 23 1 18.0751 1 12Z" fill="black"/>
<path fill-rule="evenodd" clip-rule="evenodd" d="M11.2929 7.29289C11.6834 6.90237 12.3166 6.90237 12.7071 7.29289L16.7071 11.2929C17.0976 11.6834 17.0976 12.3166 16.7071 12.7071L12.7071 16.7071C12.3166 17.0976 11.6834 17.0976 11.2929 16.7071C10.9024 16.3166 10.9024 15.6834 11.2929 15.2929L14.5858 12L11.2929 8.70711C10.9024 8.31658 10.9024 7.68342 11.2929 7.29289Z" fill="black"/>
<path fill-rule="evenodd" clip-rule="evenodd" d="M7 12C7 11.4477 7.44772 11 8 11H16C16.5523 11 17 11.4477 17 12C17 12.5523 16.5523 13 16 13H8C7.44772 13 7 12.5523 7 12Z" fill="black"/>
</svg>

<svg xmlns="http://www.w3.org/2000/svg" width="24" height="24" fill="none"><circle cx="12" cy="12" r="10" fill="#fff"/><path fill="#000" fill-rule="evenodd" d="M12 3a9 9 0 1 0 0 18 9 9 0 0 0 0-18ZM1 12C1 5.925 5.925 1 12 1s11 4.925 11 11-4.925 11-11 11S1 18.075 1 12Z" clip-rule="evenodd"/><path fill="#000" fill-rule="evenodd" d="M11.293 7.293a1 1 0 0 1 1.414 0l4 4a1 1 0 0 1 0 1.414l-4 4a1 1 0 0 1-1.414-1.414L14.586 12l-3.293-3.293a1 1 0 0 1 0-1.414Z" clip-rule="evenodd"/><path fill="#000" fill-rule="evenodd" d="M7 12a1 1 0 0 1 1-1h8a1 1 0 1 1 0 2H8a1 1 0 0 1-1-1Z" clip-rule="evenodd"/></svg>
